X: 13024
T: Finbarr Dwyer's
R: reel
M: 4/4
K: Gmajor
GB (3BBB AGEG|DGBe dBAB|GD (3DDD B,DGA|BdAc BGGA|
BGdB gdBd|cABG AGEF|G2 DB, G,B,De|dBAB G3 e:|
dB B2 GB B2|DdcB AGFA|DAFG ABcA|dedc AGFA|
G2 BG DGB,D|GBdB cBAG|Bdgd BGDB|cedc BG G2:|

